packages/core/src/svgs/thales.svg

<svg width="24" height="24" viewBox="0 0 24 24" fill="none" xmlns="http://www.w3.org/2000/svg">
<g clip-path="url(#clip0_31_19648)">
<path d="M0 0H24V24H0V0Z" fill="#1E1C57"/>
<path d="M6.42859 10.7141C6.42841 11.7346 6.7085 12.7355 7.23828 13.6076C7.76807 14.4798 8.52721 15.1897 9.43287 15.6599L9.42859 15.6684C9.43716 16.0884 9.79287 17.087 10.6714 17.087C11.37 17.087 11.5629 16.4527 11.5714 16.1356V15.2441C11.5714 14.6141 11.1386 14.0741 10.9457 13.9799C10.183 13.7337 9.53067 13.2281 9.10198 12.551C8.67328 11.8738 8.49535 11.0679 8.59909 10.2732C8.70283 9.47852 9.08169 8.74528 9.66984 8.20087C10.258 7.65647 11.0183 7.33531 11.8186 7.29319C12.6189 7.25106 13.4087 7.49064 14.0508 7.9703C14.6928 8.44995 15.1466 9.13938 15.3332 9.91879C15.5198 10.6982 15.4274 11.5184 15.0722 12.2368C14.7169 12.9552 14.1212 13.5264 13.3886 13.8513C13.0372 14.0484 12.8572 14.627 12.8572 15.3213V17.9656C12.8486 18.0513 12.7543 18.2227 12.66 18.3899L12.5357 18.617L12.5143 18.6599C12.3943 18.9041 12.3343 19.0241 12.3343 19.3627C12.3343 19.7227 12.6129 20.5713 13.5986 20.5713C14.5843 20.5713 14.7986 19.5427 14.7986 19.3627V19.3327C14.7986 19.1527 14.7986 18.8741 14.6186 18.617L14.4772 18.4327C14.31 18.227 14.1429 18.017 14.1429 17.7384V16.5984C14.1514 16.4013 14.2843 16.0284 14.4343 15.7284C15.3291 15.2938 16.0912 14.6275 16.6414 13.7988C17.1917 12.9702 17.51 12.0092 17.5634 11.0159C17.6168 10.0226 17.4033 9.03314 16.945 8.15024C16.4867 7.26735 15.8004 6.52324 14.9574 5.99522C14.1144 5.46719 13.1453 5.1745 12.151 5.14755C11.1566 5.1206 10.1731 5.36037 9.30273 5.84195C8.43233 6.32354 7.70674 7.02938 7.20132 7.88615C6.6959 8.74293 6.42909 9.7194 6.42859 10.7141ZM10.4914 8.99986L13.7143 12.2141C13.2602 12.6016 12.6905 12.8277 12.0943 12.857C11.4941 12.8435 10.9232 12.5947 10.5047 12.1642C10.0862 11.7337 9.85364 11.156 9.85716 10.5556C9.85716 9.75843 10.2814 9.18414 10.4914 8.99986Z" fill="white"/>
</g>
<defs>
<clipPath id="clip0_31_19648">
<rect width="24" height="24" fill="white"/>
</clipPath>
</defs>
</svg>

<svg xmlns="http://www.w3.org/2000/svg" width="24" height="24" fill="none" viewBox="0 0 24 24"><g clip-path="url(#a)"><path fill="#1E1C57" d="M0 0h24v24H0z"/><path fill="#fff" d="M6.429 10.714a5.57 5.57 0 0 0 3.004 4.946l-.004.008c.008.42.364 1.419 1.242 1.419.699 0 .892-.634.9-.951v-.892c0-.63-.432-1.17-.625-1.264a3.429 3.429 0 1 1 2.443-.129c-.352.197-.532.776-.532 1.47v2.645c-.008.085-.103.257-.197.424l-.124.227-.022.043c-.12.244-.18.364-.18.703 0 .36.279 1.208 1.265 1.208s1.2-1.028 1.2-1.208v-.03c0-.18 0-.459-.18-.716l-.142-.184c-.167-.206-.334-.416-.334-.695v-1.14c.008-.197.141-.57.291-.87a5.57 5.57 0 1 0-8.005-5.014M10.49 9l3.223 3.214a2.7 2.7 0 0 1-1.62.643 2.29 2.29 0 0 1-2.237-2.301c0-.798.424-1.372.634-1.556"/></g><defs><clipPath id="a"><path fill="#fff" d="M0 0h24v24H0z"/></clipPath></defs></svg>
